.local/share/icons/Gruvbox-Plus-Dark/panel/22/teamviewer-indicator-connected.svg

<svg xmlns="http://www.w3.org/2000/svg" width="22" height="22" version="1.1">
 <defs>
  <style id="current-color-scheme" type="text/css">
   .ColorScheme-Text { color:#ebdbb2; } .ColorScheme-Highlight { color:#458588; }
  </style>
 </defs>
 <g>
  <path style="fill:currentColor" class="ColorScheme-Text" d="M 20.587042,13.915801 22,15.328644 l -4.252463,4.252517 0.0059,0.006 L 16.338575,21 12.1,16.761471 l 1.412758,-1.412844 2.82192,2.819691 z M 13,8.0000002 13,10 9,10 9,8.0000002 6.0000002,11 9,14 l 0,-2 4,0 0,2 3,-3 z M 19,11 c -0.0016,1.571558 -0.467437,3.108196 -1.336919,4.417323 l -1.335597,1.335584 -2.821662,-2.821631 -2.831359,2.821631 2.050336,2.050313 C 12.158703,18.930569 11.58024,18.997763 11,18.999999 c -4.4172782,0 -8.0000001,-3.582769 -8.0000001,-8 C 2.9999999,6.5827676 6.582572,2.9998486 11,2.9999986 15.417428,3.00015 19,6.5827694 19,11 Z"/>
 </g>
</svg>

<svg width="22" height="22" version="1.1" xmlns="http://www.w3.org/2000/svg">
  <defs>
    <style id="current-color-scheme" type="text/css">.ColorScheme-Text { color:#ebdbb2; } .ColorScheme-Highlight { color:#458588; } .ColorScheme-NeutralText { color:#fe8019; } .ColorScheme-PositiveText { color:#689d6a; } .ColorScheme-NegativeText { color:#fb4934; }</style>
  </defs>
  <path class="ColorScheme-Text" d="m20.59 13.92 1.413 1.413-4.252 4.253 0.0059 6e-3 -1.415 1.413-4.239-4.239 1.413-1.413 2.822 2.82zm-7.587-5.916v2h-4v-2l-3 3 3 3v-2h4v2l3-3zm6 3c-0.0016 1.572-0.4674 3.108-1.337 4.417l-1.336 1.336-2.822-2.822-2.831 2.822 2.05 2.05c-0.5661 0.1273-1.145 0.1945-1.725 0.1968-4.417 0-8-3.583-8-8 0-4.417 3.583-8 8-8 4.417 1.514e-4 8 3.583 8 8z" fill="currentColor"/>
</svg>
